#src/img/fixing/laptop.svg

<svg width="24" height="24" fill="none" xmlns="http://www.w3.org/2000/svg"><path d="M20 18c1.1 0 2-.9 2-2V6c0-1.1-.9-2-2-2H4c-1.1 0-2 .9-2 2v10c0 1.1.9 2 2 2H0v2h24v-2h-4zM4 6h16v10H4V6z" fill="#202020" opacity=".54"/></svg>

<svg width="24" height="24" viewBox="0 0 24 24" fill="none" xmlns="http://www.w3.org/2000/svg">
  <g opacity="0.54">
    <path d="M20 18C21.1 18 22 17.1 22 16V6C22 4.9 21.1 4 20 4H4C2.9 4 2 4.9 2 6V16C2 17.1 2.9 18 4 18H0V20H24V18H20ZM4 6H20V16H4V6Z" fill="#202020"/>
  </g>
</svg>
